!!!SOCIAL_FUNCTION:	songs used in the treatment of the sick
!!!PDT:	1929
!!!OTL: No_90_I_Could_See_the_Daylight_Coming.krn
!!!REG: Southwest
!!!LANG: Non-Tone
!!!LING_GROUP: Uto-Aztecan
**kern
*staff1
=1-
*clefF4
*k[b-e-a-d-g-c-]
*M2/4
8..E-\L
32B-\Jkk
8.B-\L
16G-\Jk
=2||
*M5/8
8.G-\L
16F\L
16F\
16E-\J
8E-\
8E-\J
=3||
*M2/4
16F\LL
16E-\J
8E-\J
8.E-/L
16C-/Jk
=4
12E-\L
12E-\
12E-\J
4E-\
=5||
*M3/8
8E-\
8r
16E-\LL
16E-\JJ
=6||
*M2/4
12G-\L
12F\
12F\J
12F\L
12E-\
12F\J
=7
12F\L
12E-\
12E-\J
8.E-\L
16E-\Jk
=8||
*M3/8
8E-\
4r
=9||
*M2/4
4E-\
12F\L
12E-\
12E-\J
=10
12E-\L
12E-\
12E-\J
12E-\L
12E-\
12C-\J
=11
8.E-\L
16E-\Jk
8.E-/L
16C-/Jk
=12
4E-\
12E-\L
12E-\
12E-\J
=13
4E-\
4r
==:|!
*-
